build/styles/images/pizzicato.svg

<svg width="44" height="48" >
<g transform="translate(-480 -60) scale(1.2 1.2) scale(1.0 1.0)" >
<path stroke-width="0.3" fill="black" stroke="none" stroke-dasharray="none" d="M415.4052457763672 69.00816M415.1590057763672 63.12576000000001C415.24108577636724 63.07104,415.2958057763672 63.07104,415.4052457763672 63.07104C415.62412577636724 63.07104,415.7882857763672 63.18048,415.9250857763672 63.39936C415.9524457763672 63.481440000000006,415.9524457763672 63.50880000000001,415.9524457763672 65.12304L415.9524457763672 66.70992000000001L416.0345257763672 66.70992000000001C417.6214057763672 66.98352,418.93468577636725 68.18736,419.3450857763672 69.74688C419.42716577636725 70.10256,419.45452577636723 70.4856,419.45452577636723 70.81392000000001C419.45452577636723 72.6744,418.22332577636723 74.39808000000001,416.3902057763672 74.83584C416.0618857763672 74.94528,415.73356577636724 75,415.4052457763672 75C413.5447657763672 75,411.8758057763672 73.74144,411.43804577636723 71.8536C411.3559657763672 71.49792000000001,411.3286057763672 71.1696,411.3286057763672 70.86864C411.3286057763672 68.84400000000001,412.7239657763672 66.98352,414.74860577636724 66.70992000000001L414.8306857763672 66.70992000000001L414.8306857763672 65.12304C414.85804577636725 63.50880000000001,414.85804577636725 63.481440000000006,414.88540577636724 63.39936C414.9401257763672 63.28992,415.0495657763672 63.18048,415.1590057763672 63.12576000000001M414.8306857763672 69.41856C414.8306857763672 67.99584,414.8306857763672 67.88640000000001,414.77596577636723 67.88640000000001C414.77596577636723 67.88640000000001,414.77596577636723 67.88640000000001,414.77596577636723 67.88640000000001C414.4476457763672 67.91376000000001,413.7089257763672 68.2968,413.3258857763672 68.7072C412.7239657763672 69.30912000000001,412.4503657763672 70.04784000000001,412.4503657763672 70.78656000000001C412.4503657763672 72.34608,413.62684577636725 73.82352,415.37788577636724 73.82352C417.1289257763672 73.82352,418.33276577636724 72.34608,418.33276577636724 70.78656000000001C418.33276577636724 70.04784000000001,418.0318057763672 69.30912000000001,417.4298857763672 68.7072C417.07420577636725 68.2968,416.2807657763672 67.88640000000001,415.9524457763672 67.88640000000001C415.9524457763672 67.88640000000001,415.9524457763672 68.59776000000001,415.9524457763672 69.41856C415.9524457763672 70.97808,415.9524457763672 70.97808,415.9250857763672 71.03280000000001C415.7882857763672 71.27904000000001,415.5694057763672 71.38848,415.4052457763672 71.38848C415.1863657763672 71.38848,414.9674857763672 71.27904000000001,414.88540577636724 71.03280000000001C414.85804577636725 70.97808,414.85804577636725 70.97808,414.8306857763672 69.41856"></path>
</g></svg>

<?xml version="1.0" encoding="UTF-8" standalone="no"?>
<svg
   xmlns:dc="http://purl.org/dc/elements/1.1/"
   xmlns:cc="http://creativecommons.org/ns#"
   xmlns:rdf="http://www.w3.org/1999/02/22-rdf-syntax-ns#"
   xmlns:svg="http://www.w3.org/2000/svg"
   xmlns="http://www.w3.org/2000/svg"
   xmlns:sodipodi="http://sodipodi.sourceforge.net/DTD/sodipodi-0.dtd"
   xmlns:inkscape="http://www.inkscape.org/namespaces/inkscape"
   width="44"
   height="48"
   version="1.1"
   id="svg6"
   sodipodi:docname="pizzicato.svg"
   inkscape:version="0.92.4 (5da689c313, 2019-01-14)">
  <metadata
     id="metadata12">
    <rdf:RDF>
      <cc:Work
         rdf:about="">
        <dc:format>image/svg+xml</dc:format>
        <dc:type
           rdf:resource="http://purl.org/dc/dcmitype/StillImage" />
        <dc:title></dc:title>
      </cc:Work>
    </rdf:RDF>
  </metadata>
  <defs
     id="defs10" />
  <sodipodi:namedview
     pagecolor="#ffffff"
     bordercolor="#666666"
     borderopacity="1"
     objecttolerance="10"
     gridtolerance="10"
     guidetolerance="10"
     inkscape:pageopacity="0"
     inkscape:pageshadow="2"
     inkscape:window-width="1920"
     inkscape:window-height="1017"
     id="namedview8"
     showgrid="false"
     inkscape:zoom="4.9166667"
     inkscape:cx="22"
     inkscape:cy="24"
     inkscape:window-x="1912"
     inkscape:window-y="-8"
     inkscape:window-maximized="1"
     inkscape:current-layer="svg6" />
  <g
     transform="matrix(3.0271697,0,0,2.7004079,-1236.4486,-161.75093)"
     id="g4">
    <path
       d="m 415.40525,69.00816 m -0.24624,-5.8824 c 0.0821,-0.05472 0.1368,-0.05472 0.24624,-0.05472 0.21888,0 0.38304,0.10944 0.51984,0.32832 0.0274,0.08208 0.0274,0.10944 0.0274,1.72368 v 1.58688 h 0.0821 c 1.58688,0.2736 2.90016,1.47744 3.31056,3.03696 0.0821,0.35568 0.10944,0.73872 0.10944,1.06704 0,1.86048 -1.2312,3.58416 -3.06432,4.02192 C 416.06189,74.94528 415.73357,75 415.40525,75 c -1.86048,0 -3.52944,-1.25856 -3.9672,-3.1464 -0.0821,-0.35568 -0.10944,-0.684 -0.10944,-0.98496 0,-2.02464 1.39536,-3.88512 3.42,-4.15872 h 0.0821 v -1.58688 c 0.0274,-1.61424 0.0274,-1.6416 0.0547,-1.72368 0.0547,-0.10944 0.16416,-0.21888 0.2736,-0.2736 m -0.32832,6.2928 c 0,-1.42272 0,-1.53216 -0.0547,-1.53216 0,0 0,0 0,0 -0.32832,0.02736 -1.06704,0.4104 -1.45008,0.8208 -0.60192,0.60192 -0.87552,1.34064 -0.87552,2.07936 0,1.55952 1.17648,3.03696 2.92752,3.03696 1.75104,0 2.95488,-1.47744 2.95488,-3.03696 0,-0.73872 -0.30096,-1.47744 -0.90288,-2.07936 -0.35568,-0.4104 -1.14912,-0.8208 -1.47744,-0.8208 0,0 0,0.71136 0,1.53216 0,1.55952 0,1.55952 -0.0274,1.61424 -0.1368,0.24624 -0.35568,0.35568 -0.51984,0.35568 -0.21888,0 -0.43776,-0.10944 -0.51984,-0.35568 -0.0274,-0.05472 -0.0274,-0.05472 -0.0547,-1.61424"
       id="path2"
       inkscape:connector-curvature="0"
       style="fill:#000000;stroke:none;stroke-width:0.30000001;stroke-dasharray:none" />
  </g>
</svg>
